X: 16356
T: Gunna
R: reel
M: 4/4
K: Gminor
|:D_DC_D =DF_G=G|BGBc d2ga|baba gdef|gdBc _dcBF|
GFG2 GFGA|BAGF E2ED|EDEF FGBF|1 _DCB,G, G,4:|2 _DCB,G, G,2G,A,|
|:B,2C_D =D2F_G|G_G=GA B2Bc|_d=dfd cBGF|zcBG F2GA|
B2Bc d2df|gagf d2Bc|_dcBc dcB=d|1 zfdc B2 G,A,:|2 zfdc B4||

